X: 1024
T: The Fardown Farmer
N:"Collected by J.O'Neill"
B:O'Neill's 1024
Z:Transcribed by Dan G. Petersen, dangp@post6.tele.dk
M:6/8
L:1/8
K:G
A|BAB GED|EFG GAB|BAB GED|EAA ABc|
BAB GED|EFG GAB|dfe dcA|(B<G)G G2:|
A|Bcd ded|dge dBG|Bcd ded|efd g2d|
Bcd ded|dge dBG|dfe dcA|(B<G)G G2:|


